!!!OTL: Xinniange
!!!ARE: Asia, China,ÿJiangxi Suichuan
!! IV, 197
!!!SCT: C1958
!!!YEM: Copyright 1995, estate of Helmut Schaffrath.
**kern
*ICvox
*Ivox
!! Mixed meters:  2/4; 3/4
*M3/4
*k[]
*C:
{8cc
8a
8cc
8dd
=1
8e
4e
8d
=2
8cc
8a
16cc
16dd
8ee
=3
2dd}
=4
{8a
8cc
8dd
16dd
16dd
=5
8.cc
16ee
8.dd
16cc
=6
16a
16cc
16g
16a
16dd
16cc
16a
16cc
=7
2g}
=8
{8e
4e
16e
16g
=9
8a
8g
4cc
=10
8a
8g
16a
16cc
16a
16g
=11
8e
4.e}
=12
{16e
16g
4e
8e
=13
8a
8g
8.cc
16dd
=14
16a
16cc
16g
16a
16dd
16cc
16a
16cc
=15
2g}
=16
{8ee
8ee
16dd
16ee
16a
16cc
=17
2dd}
=18
{4ee
4g
=19
2a}
=20
{8cc
8cc
16a
16cc
16a
16g
=21
8e
4e
8g}
=22
{8a
8g
16a
16cc
16a
16g
=23
2e}
=24
{8cc
8a
16cc
16a
16cc
16dd
=25
8.g
16a
4cc}
=26
{16cc
16cc
16cc
16a
16cc
16dd
8ee
=27
2dd}
=28
{8a
8a
8.g
16a
=29
2cc}
=30
{8a
8a
16dd
16ee
8a
=31
4.cc
8dd
=32
8e
16e
16g
16a
16g
16a
16cc
=33
2g}
=34
{8a
8a
4ee
=35
8ee
8a
4ee
=36
8cc
16cc
16a
8.g
16a
=37
2cc}
=38
{8cc
16cc
16a
8.g
16a
4cc}
=39
{8cc
4g
8a
4cc}
=40
{8cc
4g
8a
4cc}
=41
*M2/4
{8cc
8a
4cc}
=42
{8cc
8a
4cc}
=43
{8cc
8cc
8e
8g
=44
8e
8g
8cc
8cc
=45
8e
16e
16g
16a
16g
8e
=46
8.d
16e
8g
8e
=47
8a
4.g}
==
!!!AGN: Xiaodiao, Dengge, Tongqiange
!!!AMT: irregular
!!!AIN: vox
!!!EED: Helmut Schaffrath
!!!EEV: 1.0
*-
